img/svg/facebook-icon.svg

<svg width="48" height="48" viewBox="0 0 48 48" fill="none" xmlns="http://www.w3.org/2000/svg">
<path d="M24 14.0402C18.5 14.0402 14 18.5302 14 24.0602C14 29.0602 17.66 33.2102 22.44 33.9602V26.9602H19.9V24.0602H22.44V21.8502C22.44 19.3402 23.93 17.9602 26.22 17.9602C27.31 17.9602 28.45 18.1502 28.45 18.1502V20.6202H27.19C25.95 20.6202 25.56 21.3902 25.56 22.1802V24.0602H28.34L27.89 26.9602H25.56V33.9602C27.9164 33.5881 30.0622 32.3857 31.6099 30.5703C33.1576 28.7548 34.0054 26.4459 34 24.0602C34 18.5302 29.5 14.0402 24 14.0402Z" fill="#072125"/>
<path d="M24 47.0002C11.2975 47.0002 1 36.7028 1 24.0002H-1C-1 37.8074 10.1929 49.0002 24 49.0002V47.0002ZM47 24.0002C47 36.7028 36.7025 47.0002 24 47.0002V49.0002C37.8071 49.0002 49 37.8074 49 24.0002H47ZM24 1.00024C36.7025 1.00024 47 11.2977 47 24.0002H49C49 10.1931 37.8071 -0.999756 24 -0.999756V1.00024ZM24 -0.999756C10.1929 -0.999756 -1 10.1931 -1 24.0002H1C1 11.2977 11.2975 1.00024 24 1.00024V-0.999756Z" fill="#20484F" fill-opacity="0.1"/>
</svg>

<svg width="48" height="48" fill="none" xmlns="http://www.w3.org/2000/svg"><path d="M24 14.04c-5.5 0-10 4.49-10 10.02 0 5 3.66 9.15 8.44 9.9v-7H19.9v-2.9h2.54v-2.21c0-2.51 1.49-3.89 3.78-3.89 1.09 0 2.23.19 2.23.19v2.47h-1.26c-1.24 0-1.63.77-1.63 1.56v1.88h2.78l-.45 2.9h-2.33v7a10 10 0 0 0 8.44-9.9c0-5.53-4.5-10.02-10-10.02Z" fill="#072125"/><path d="M24 47C11.297 47 1 36.703 1 24h-2c0 13.807 11.193 25 25 25v-2Zm23-23c0 12.703-10.297 23-23 23v2c13.807 0 25-11.193 25-25h-2ZM24 1c12.703 0 23 10.298 23 23h2C49 10.193 37.807-1 24-1v2Zm0-2C10.193-1-1 10.193-1 24h2C1 11.298 11.297 1 24 1v-2Z" fill="#20484F" fill-opacity=".1"/></svg>
